src/components/00-materials/images-raw/Remote Control.svg

<svg width="96" height="96" viewBox="0 0 96 96" fill="none" xmlns="http://www.w3.org/2000/svg">
<path d="M48.5 11H47.51C40.1922 11 34.26 16.9322 34.26 24.25V71.75C34.26 79.0678 40.1922 85 47.51 85H48.5C55.8178 85 61.75 79.0678 61.75 71.75V24.25C61.75 16.9322 55.8178 11 48.5 11Z" stroke="#00008F" stroke-width="2" stroke-linecap="round" stroke-linejoin="round"/>
<path d="M48 75.6098C51.0486 75.6098 53.52 73.1384 53.52 70.0898C53.52 67.0412 51.0486 64.5698 48 64.5698C44.9514 64.5698 42.48 67.0412 42.48 70.0898C42.48 73.1384 44.9514 75.6098 48 75.6098Z" stroke="#00008F" stroke-width="2" stroke-linecap="round" stroke-linejoin="round"/>
<path d="M50.21 48.0002H53.52M42.48 29.2202H45.79H42.48ZM50.21 29.2202H53.52H50.21ZM42.48 38.0602H45.79H42.48ZM50.21 38.0602H53.52H50.21ZM42.48 48.0002H45.79H42.48Z" stroke="#00008F" stroke-width="2" stroke-linecap="round" stroke-linejoin="round"/>
</svg>

<svg width="96" height="96" viewBox="0 0 96 96" fill="none" xmlns="http://www.w3.org/2000/svg"><path d="M48.5 11h-.99c-7.318 0-13.25 5.932-13.25 13.25v47.5c0 7.318 5.932 13.25 13.25 13.25h.99c7.318 0 13.25-5.932 13.25-13.25v-47.5C61.75 16.932 55.818 11 48.5 11z" stroke="#00008F" stroke-width="2" stroke-linecap="round" stroke-linejoin="round"/><path d="M48 75.61a5.52 5.52 0 100-11.04 5.52 5.52 0 000 11.04zM50.21 48h3.31M42.48 29.22h3.31-3.31zm7.73 0h3.31-3.31zm-7.73 8.84h3.31-3.31zm7.73 0h3.31-3.31zM42.48 48h3.31-3.31z" stroke="#00008F" stroke-width="2" stroke-linecap="round" stroke-linejoin="round"/></svg>
